X: 40178
T: Time Is Slipping
R: reel
M: 4/4
K: Gmajor
S|:BdEG AdDF|GBAG ADFA|EFGB AGFD|ECcA FD[1 dc:|2 BA||
GBGD EFGB|AdAF DEFD|CEcA FDdc|1 BGcB AFBA:|2 BGcA FDdc||
|:BdeB dDEF|GABG ADFA|EGcB AFdc|BGed [1 cAfd:|2 cBASG||

